assets/icons/instructor.svg

<svg width="20" height="20" viewBox="0 0 20 20" fill="none" xmlns="http://www.w3.org/2000/svg">
<path d="M9.05644 8.87861V11.1282M9.05644 11.1282L8.28383 13.6688L9.99982 15.3847L11.7158 13.6688L10.8634 11.1282M9.05644 11.1282H10.8634M10.8634 11.1282V8.89546M13.4394 5.43931C13.4394 7.33878 11.8996 8.87861 10.0001 8.87861C8.10065 8.87861 6.56082 7.33878 6.56082 5.43931C6.56082 3.53983 8.10065 2 10.0001 2C11.8996 2 13.4394 3.53983 13.4394 5.43931ZM7.9064 8.87861H12.0939C14.6127 8.87861 16.6545 10.9205 16.6545 13.4393V18H3.3457V13.4393C3.3457 10.9205 5.38759 8.87861 7.9064 8.87861Z" stroke="currentColor" stroke-width="1.3" stroke-linecap="round"/>
</svg>

<svg xmlns="http://www.w3.org/2000/svg" width="20" height="20" fill="none" viewBox="0 0 20 20"><path stroke="currentColor" stroke-linecap="round" stroke-width="1.3" d="M9.056 8.879v2.25m0 0-.772 2.54L10 15.385l1.716-1.716-.853-2.54m-1.807 0h1.807m0 0V8.894M13.44 5.44a3.44 3.44 0 1 1-6.878 0 3.44 3.44 0 0 1 6.878 0ZM7.906 8.88h4.188a4.56 4.56 0 0 1 4.56 4.56V18H3.346v-4.56a4.56 4.56 0 0 1 4.56-4.561Z"/></svg>
